;FLAVOR:Marlin
;TIME:2085
;Filament used: 2.03143m
;Layer height: 0.28
;MINX:98.256
;MINY:98.259
;MINZ:0.2
;MAXX:136.744
;MAXY:136.74
;MAXZ:29.88
;Generated with Cura_SteamEngine 5.2.2
M140 S65
M105
M190 S65
M104 S220
M105
M109 S220
M82 ;absolute extrusion mode
; Ender 3 Custom Start G-code
G92 E0 ; Reset Extruder
G28 ; Home all axes
G1 Z2.0 F3000 ; Move Z Axis up little to prevent scratching of Heat Bed
G1 X0.1 Y20 Z0.3 F5000.0 ; Move to start position
G1 X0.1 Y200.0 Z0.3 F1500.0 E15 ; Draw the first line
G1 X0.4 Y200.0 Z0.3 F5000.0 ; Move to side a little
G1 X0.4 Y20 Z0.3 F1500.0 E30 ; Draw the second line
G92 E0 ; Reset Extruder
G1 Z2.0 F3000 ; Move Z Axis up little to prevent scratching of Heat Bed
G1 X5 Y20 Z0.3 F5000.0 ; Move over to prevent blob squish
G92 E0
G92 E0
G1 F2700 E-5
;LAYER_COUNT:107
;LAYER:0
M107
G0 F6000 X103.793 Y103.995 Z0.2
;TYPE:SKIRT
G1 F2700 E0
G1 F1200 X104.725 Y103.111 E0.04807
G1 X105.686 Y102.31 E0.09488
G1 X106.723 Y101.559 E0.14279
G1 X107.725 Y100.926 E0.18713
G1 X108.832 Y100.319 E0.23437
G1 X110.071 Y99.75 E0.28539
G1 X111.269 Y99.295 E0.33334
G1 X112.47 Y98.928 E0.38033
G1 X113.708 Y98.635 E0.42793
G1 X114.964 Y98.426 E0.47557
G1 X116.234 Y98.3 E0.52333
G1 X117.496 Y98.259 E0.57057
G1 X118.768 Y98.299 E0.61819
G1 X120.043 Y98.426 E0.66614
G1 X121.282 Y98.631 E0.71313
G1 X122.536 Y98.929 E0.76135
G1 X123.732 Y99.294 E0.80814
G1 X124.938 Y99.752 E0.85641
G1 X126.085 Y100.277 E0.90361
G1 X127.192 Y100.875 E0.95069
G1 X128.283 Y101.561 E0.99892
G1 X129.303 Y102.299 E1.04602
G1 X130.285 Y103.118 E1.09387
G1 X131.207 Y103.993 E1.14143
G1 X132.067 Y104.925 E1.18888
G1 X132.864 Y105.912 E1.23635
G1 X133.599 Y106.954 E1.28406
G1 X134.259 Y108.041 E1.33165
G1 X134.842 Y109.154 E1.37866
G1 X135.364 Y110.339 E1.42711
G1 X135.793 Y111.519 E1.47409
G1 X136.149 Y112.745 E1.52186
G1 X136.419 Y113.966 E1.56865
G1 X136.615 Y115.25 E1.61725
G1 X136.721 Y116.495 E1.66401
G1 X136.744 Y117.778 E1.71202
G1 X136.685 Y119.047 E1.75955
G1 X136.54 Y120.309 E1.80709
G1 X136.315 Y121.563 E1.85476
G1 X135.984 Y122.865 E1.90503
G1 X135.613 Y124.011 E1.9501
G1 X135.148 Y125.182 E1.99724
G1 X134.56 Y126.412 E2.04825
G1 X133.938 Y127.513 E2.09557
G1 X133.289 Y128.51 E2.14008
G1 X132.478 Y129.592 E2.19068
G1 X131.644 Y130.558 E2.23843
G1 X130.756 Y131.458 E2.28574
G1 X129.799 Y132.308 E2.33363
G1 X128.8 Y133.084 E2.38097
G1 X127.818 Y133.752 E2.42541
G1 X126.65 Y134.438 E2.47609
G1 X125.504 Y135.007 E2.52397
G1 X124.349 Y135.491 E2.57082
G1 X123.214 Y135.883 E2.61575
G1 X121.907 Y136.239 E2.66644
G1 X120.663 Y136.489 E2.71392
G1 X119.402 Y136.657 E2.76152
G1 X118.139 Y136.74 E2.80888
G1 X116.866 Y136.74 E2.85651
G1 X115.597 Y136.657 E2.9041
G1 X114.346 Y136.492 E2.95131
G1 X113.091 Y136.24 E2.99921
G1 X111.855 Y135.905 E3.04713
G1 X110.664 Y135.498 E3.09422
G1 X109.486 Y135.004 E3.14202
G1 X108.358 Y134.443 E3.18916
G1 X107.251 Y133.796 E3.23713
G1 X106.199 Y133.085 E3.28464
G1 X105.2 Y132.309 E3.33198
G1 X104.243 Y131.459 E3.37987
G1 X103.355 Y130.559 E3.42718
G1 X102.522 Y129.593 E3.47491
G1 X101.761 Y128.584 E3.5222
G1 X101.062 Y127.516 E3.56996
G1 X100.438 Y126.412 E3.61741
G1 X99.888 Y125.268 E3.6649
G1 X99.412 Y124.083 E3.71269
G1 X99.022 Y122.892 E3.75958
G1 X98.702 Y121.638 E3.808
G1 X98.474 Y120.406 E3.85489
G1 X98.321 Y119.128 E3.90305
G1 X98.256 Y117.87 E3.95018
G1 X98.274 Y116.612 E3.99726
G1 X98.376 Y115.329 E4.04542
G1 X98.564 Y114.067 E4.09316
G1 X98.83 Y112.828 E4.14058
G1 X99.178 Y111.612 E4.1879
G1 X99.608 Y110.409 E4.2357
G1 X100.15 Y109.175 E4.28614
G1 X100.743 Y108.039 E4.33408
G1 X101.356 Y107.025 E4.37842
G1 X102.081 Y105.987 E4.4258
G1 X102.929 Y104.932 E4.47644
G1 X103.793 Y103.995 E4.52413
G0 F6000 X104.12 Y104.304
G1 F1200 X105.088 Y103.394 E4.57385
G1 X105.968 Y102.661 E4.6167
G1 X106.898 Y101.987 E4.65968
G1 X107.949 Y101.316 E4.70633
G1 X109.047 Y100.715 E4.75317
G1 X110.233 Y100.17 E4.80201
G1 X111.41 Y99.723 E4.84912
G1 X112.684 Y99.34 E4.8989
G1 X113.804 Y99.075 E4.94196
G1 X115.12 Y98.862 E4.99184
G1 X116.255 Y98.749 E5.03452
G1 X117.592 Y98.711 E5.08457
G1 X118.738 Y98.747 E5.12747
G1 X119.881 Y98.861 E5.17045
G1 X121.197 Y99.072 E5.22032
G1 X122.319 Y99.339 E5.26348
G1 X123.591 Y99.722 E5.31318
G1 X124.761 Y100.166 E5.36001
G1 X125.967 Y100.725 E5.40975
G1 X126.891 Y101.224 E5.44904
G1 X128.017 Y101.924 E5.49865
G1 X129.039 Y102.664 E5.54586
G1 X129.913 Y103.393 E5.58845
G1 X130.885 Y104.307 E5.63837
G1 X131.787 Y105.294 E5.6884
G1 X132.446 Y106.11 E5.72765
G1 X133.221 Y107.199 E5.77766
G1 X133.865 Y108.258 E5.82404
G1 X134.44 Y109.357 E5.87045
G1 X134.942 Y110.498 E5.91709
G1 X135.365 Y111.66 E5.96336
G1 X135.712 Y112.854 E6.00989
G1 X135.994 Y114.158 E6.05981
G1 X136.152 Y115.195 E6.09906
G1 X136.272 Y116.534 E6.14936
G1 X136.293 Y117.674 E6.19202
G1 X136.237 Y118.999 E6.24165
G1 X136.095 Y120.239 E6.28835
G1 X135.875 Y121.47 E6.33514
G1 X135.551 Y122.745 E6.38436
G1 X135.157 Y123.94 E6.43144
G1 X134.737 Y124.999 E6.47407
G1 X134.162 Y126.203 E6.524
G1 X133.503 Y127.356 E6.57369
G1 X132.919 Y128.253 E6.61374
G1 X132.129 Y129.306 E6.663
G1 X131.311 Y130.255 E6.70988
G1 X130.369 Y131.201 E6.75983
G1 X129.52 Y131.954 E6.80229
G1 X128.462 Y132.77 E6.85229
G1 X127.579 Y133.37 E6.89223
G1 X126.429 Y134.045 E6.94213
G1 X125.235 Y134.632 E6.99191
G1 X124.269 Y135.037 E7.0311
G1 X123.082 Y135.452 E7.07816
G1 X121.802 Y135.801 E7.1278
G1 X120.589 Y136.045 E7.1741
G1 X119.358 Y136.209 E7.22056
G1 X118.125 Y136.29 E7.2668
G1 X116.879 Y136.29 E7.31342
G1 X115.639 Y136.209 E7.35992
G1 X114.507 Y136.059 E7.40264
G1 X113.193 Y135.802 E7.45274
G1 X111.906 Y135.447 E7.5027
G1 X110.817 Y135.075 E7.54576
G1 X109.592 Y134.554 E7.59557
G1 X108.567 Y134.044 E7.63841
G1 X107.499 Y133.42 E7.68469
G1 X106.46 Y132.718 E7.73161
G1 X105.413 Y131.897 E7.78139
G1 X104.63 Y131.202 E7.82057
G1 X103.684 Y130.251 E7.87076
G1 X102.816 Y129.236 E7.92073
G1 X102.185 Y128.399 E7.95995
G1 X101.449 Y127.286 E8.00988
G1 X100.795 Y126.117 E8.06
G1 X100.3 Y125.088 E8.10273
G1 X99.838 Y123.939 E8.14907
G1 X99.452 Y122.759 E8.19552
G1 X99.144 Y121.55 E8.2422
G1 X98.935 Y120.422 E8.28513
G1 X98.771 Y119.103 E8.33486
G1 X98.707 Y117.853 E8.3817
G1 X98.724 Y116.623 E8.42772
G1 X98.823 Y115.381 E8.47434
G1 X99.025 Y114.062 E8.52427
G1 X99.265 Y112.943 E8.5671
G1 X99.607 Y111.751 E8.6135
G1 X100.025 Y110.582 E8.65995
G1 X100.565 Y109.352 E8.71022
G1 X101.179 Y108.188 E8.75946
G1 X101.731 Y107.274 E8.79941
G1 X102.441 Y106.257 E8.84582
G1 X103.272 Y105.224 E8.89543
G1 X104.12 Y104.304 E8.94224
G0 F6000 X104.379 Y104.686
G1 F1200 X105.257 Y103.846 E8.98771
G1 X106.245 Y103.016 E9.03599
G1 X107.162 Y102.352 E9.07836
G1 X108.113 Y101.745 E9.12057
G1 X109.25 Y101.117 E9.16917
G1 X110.495 Y100.551 E9.22035
G1 X111.477 Y100.178 E9.25965
G1 X112.635 Y99.819 E9.30502
G1 X113.887 Y99.517 E9.35321
G1 X115.165 Y99.31 E9.40165
G1 X116.374 Y99.195 E9.44709
G1 X117.42 Y99.161 E9.48625
G1 X118.708 Y99.196 E9.53446
G1 X119.995 Y99.33 E9.58288
G1 X121.116 Y99.515 E9.62539
G1 X122.366 Y99.818 E9.67352
G1 X123.524 Y100.177 E9.71888
G1 X124.506 Y100.55 E9.75819
G1 X125.753 Y101.121 E9.80951
G1 X126.677 Y101.62 E9.8488
G1 X127.839 Y102.35 E9.90015
G1 X128.687 Y102.964 E9.93932
G1 X129.625 Y103.739 E9.98485
G1 X130.621 Y104.684 E10.03622
G1 X131.331 Y105.454 E10.07541
G1 X132.193 Y106.522 E10.12677
G1 X132.888 Y107.517 E10.17218
G1 X133.432 Y108.412 E10.21137
G1 X134.037 Y109.557 E10.25983
G1 X134.552 Y110.741 E10.30814
G1 X134.961 Y111.88 E10.35342
G1 X135.253 Y112.885 E10.39258
G1 X135.519 Y114.065 E10.43784
G1 X135.707 Y115.263 E10.48322
G1 X135.823 Y116.553 E10.53168
G1 X135.843 Y117.682 E10.57393
G1 X135.787 Y118.972 E10.62225
G1 X135.659 Y120.096 E10.66458
G1 X135.436 Y121.372 E10.71304
G1 X135.137 Y122.546 E10.75838
G1 X134.739 Y123.774 E10.80668
G1 X134.353 Y124.747 E10.84584
G1 X133.762 Y125.996 E10.89755
G1 X133.207 Y126.978 E10.93975
G1 X132.502 Y128.059 E10.98804
G1 X131.721 Y129.091 E11.03647
G1 X131.037 Y129.884 E11.07566
G1 X130.131 Y130.811 E11.12416
G1 X129.163 Y131.662 E11.17238
G1 X128.209 Y132.398 E11.21747
G1 X127.264 Y133.034 E11.26009
G1 X126.226 Y133.643 E11.30512
G1 X125.061 Y134.217 E11.35372
G1 X124.095 Y134.622 E11.39291
G1 X123.024 Y134.996 E11.43536
G1 X121.787 Y135.339 E11.48339
G1 X120.515 Y135.6 E11.53198
G1 X119.231 Y135.766 E11.58042
G1 X118.186 Y135.835 E11.61961
G1 X116.977 Y135.84 E11.66485
G1 X115.77 Y135.767 E11.71009
G1 X114.406 Y135.586 E11.76158
G1 X113.377 Y135.38 E11.80084
G1 X112.205 Y135.068 E11.84622
G1 X110.979 Y134.655 E11.89463
G1 X109.793 Y134.151 E11.94285
G1 X108.708 Y133.605 E11.9883
G1 X107.666 Y132.991 E12.03355
G1 X106.796 Y132.403 E12.07284
G1 X105.836 Y131.663 E12.1182
G1 X104.868 Y130.812 E12.16643
G1 X103.962 Y129.885 E12.21493
G1 X103.278 Y129.092 E12.25411
G1 X102.495 Y128.062 E12.30252
G1 X101.792 Y126.979 E12.35084
G1 X101.277 Y126.068 E12.38999
G1 X100.747 Y124.977 E12.43538
G1 X100.291 Y123.857 E12.48063
G1 X99.883 Y122.629 E12.52904
G1 X99.568 Y121.372 E12.57753
G1 X99.353 Y120.183 E12.62274
G1 X99.215 Y118.979 E12.66809
G1 X99.158 Y117.77 E12.71338
G1 X99.173 Y116.723 E12.75256
G1 X99.27 Y115.431 E12.80104
G1 X99.465 Y114.157 E12.84926
G1 X99.685 Y113.132 E12.88849
G1 X100.014 Y111.964 E12.93389
G1 X100.445 Y110.742 E12.98238
G1 X100.965 Y109.558 E13.03077
G1 X101.565 Y108.42 E13.0789
G1 X102.156 Y107.452 E13.12134
G1 X102.804 Y106.524 E13.16369
G1 X103.669 Y105.456 E13.21512
G1 X104.379 Y104.686 E13.25431
G0 F6000 X104.71 Y104.991
G1 F1200 X105.567 Y104.172 E13.29866
G1 X106.577 Y103.331 E13.34784
G1 X107.532 Y102.644 E13.39186
G1 X108.353 Y102.125 E13.4282
G1 X109.51 Y101.493 E13.47753
G1 X110.655 Y100.972 E13.5246
G1 X111.765 Y100.555 E13.56897
G1 X112.891 Y100.215 E13.61298
G1 X113.909 Y99.974 E13.65213
G1 X115.078 Y99.775 E13.6965
G1 X116.253 Y99.654 E13.7407
G1 X117.434 Y99.611 E13.78491
G1 X118.611 Y99.644 E13.82897
G1 X119.921 Y99.774 E13.87823
G1 X121.093 Y99.973 E13.92271
G1 X122.234 Y100.248 E13.96663
G1 X123.236 Y100.554 E14.00583
G1 X124.346 Y100.971 E14.0502
G1 X125.539 Y101.517 E14.09929
G1 X126.463 Y102.016 E14.13858
G1 X127.575 Y102.715 E14.18773
G1 X128.532 Y103.414 E14.23207
G1 X129.434 Y104.171 E14.27613
G1 X130.29 Y104.989 E14.32044
G1 X131 Y105.759 E14.35963
G1 X131.825 Y106.781 E14.40877
G1 X132.428 Y107.636 E14.44792
G1 X133.111 Y108.759 E14.4971
G1 X133.656 Y109.81 E14.5414
G1 X134.129 Y110.895 E14.58569
G1 X134.529 Y112.006 E14.62987
G1 X134.821 Y113.011 E14.66903
G1 X135.104 Y114.294 E14.71819
G1 X135.278 Y115.464 E14.76245
G1 X135.374 Y116.642 E14.80668
G1 X135.393 Y117.69 E14.8459
G1 X135.342 Y118.869 E14.89005
G1 X135.212 Y120.045 E14.93433
G1 X134.978 Y121.346 E14.98379
G1 X134.701 Y122.435 E15.02583
G1 X134.364 Y123.486 E15.06713
G1 X133.879 Y124.707 E15.11629
G1 X133.33 Y125.846 E15.1636
G1 X132.815 Y126.757 E15.20276
G1 X132.219 Y127.679 E15.24384
G1 X131.467 Y128.689 E15.29095
G1 X130.605 Y129.689 E15.34035
G1 X129.869 Y130.435 E15.37957
G1 X128.887 Y131.307 E15.42871
G1 X127.956 Y132.026 E15.47272
G1 X127.15 Y132.574 E15.50919
G1 X126.068 Y133.214 E15.55623
G1 X124.887 Y133.802 E15.60559
G1 X123.798 Y134.254 E15.64971
G1 X122.878 Y134.571 E15.68612
G1 X121.669 Y134.905 E15.73305
G1 X120.374 Y135.165 E15.78248
G1 X119.201 Y135.317 E15.82674
G1 X118.156 Y135.386 E15.86592
G1 X116.846 Y135.386 E15.91494
G1 X115.8 Y135.318 E15.95416
G1 X114.494 Y135.145 E16.00345
G1 X113.465 Y134.939 E16.04272
G1 X112.197 Y134.595 E16.09188
G1 X111.076 Y134.207 E16.13627
G1 X109.993 Y133.748 E16.18028
G1 X108.935 Y133.217 E16.22458
G1 X107.918 Y132.618 E16.26874
G1 X106.939 Y131.951 E16.31306
G1 X106.112 Y131.308 E16.35226
G1 X105.13 Y130.436 E16.4014
G1 X104.394 Y129.69 E16.44061
G1 X103.619 Y128.798 E16.48483
G1 X102.904 Y127.857 E16.52905
G1 X102.184 Y126.758 E16.57821
G1 X101.669 Y125.847 E16.61737
G1 X101.099 Y124.661 E16.6666
G1 X100.662 Y123.563 E16.71082
G1 X100.336 Y122.567 E16.75004
G1 X100.04 Y121.423 E16.79425
G1 X99.8 Y120.13 E16.84346
G1 X99.676 Y119.091 E16.88261
G1 X99.608 Y117.776 E16.93188
G1 X99.629 Y116.598 E16.97597
G1 X99.712 Y115.553 E17.01519
G1 X99.905 Y114.251 E17.06444
G1 X100.158 Y113.094 E17.10876
G1 X100.486 Y111.963 E17.15282
G1 X100.839 Y110.976 E17.19204
G1 X101.403 Y109.69 E17.24459
G1 X101.888 Y108.762 E17.28377
G1 X102.525 Y107.709 E17.32982
G1 X103.207 Y106.741 E17.37412
G1 X104 Y105.761 E17.42129
G1 X104.71 Y104.991 E17.46048
G0 F6000 X105.041 Y105.296
G1 F1200 X105.877 Y104.498 E17.50373
G1 X106.841 Y103.695 E17.55067
G1 X107.69 Y103.08 E17.5899
G1 X108.679 Y102.455 E17.63368
G1 X109.6 Y101.951 E17.67296
G1 X110.716 Y101.434 E17.71898
G1 X111.896 Y100.986 E17.76621
G1 X112.995 Y100.653 E17.80918
G1 X114.013 Y100.412 E17.84832
G1 X115.152 Y100.219 E17.89155
G1 X116.403 Y100.095 E17.93859
G1 X117.55 Y100.061 E17.98152
G1 X118.703 Y100.101 E18.02469
G1 X119.848 Y100.218 E18.06776
G1 X120.882 Y100.389 E18.10697
G1 X122.103 Y100.679 E18.15393
G1 X123.204 Y101.019 E18.19705
G1 X124.283 Y101.432 E18.24028
G1 X125.233 Y101.867 E18.27937
G1 X126.249 Y102.412 E18.32252
G1 X127.311 Y103.079 E18.36944
G1 X128.159 Y103.693 E18.40861
G1 X129.124 Y104.497 E18.45561
G1 X129.959 Y105.294 E18.4988
G1 X130.669 Y106.064 E18.53799
G1 X131.395 Y106.958 E18.58109
G1 X132.119 Y107.985 E18.6281
G1 X132.713 Y108.968 E18.67108
G1 X133.199 Y109.897 E18.71031
G1 X133.667 Y110.952 E18.75349
G1 X134.064 Y112.033 E18.79658
G1 X134.414 Y113.236 E18.84346
G1 X134.64 Y114.259 E18.88267
G1 X134.817 Y115.399 E18.92583
G1 X134.924 Y116.65 E18.97281
G1 X134.943 Y117.698 E19.01203
G1 X134.884 Y118.953 E19.05904
G1 X134.765 Y119.994 E19.09825
G1 X134.565 Y121.125 E19.14123
G1 X134.236 Y122.422 E19.19129
G1 X133.902 Y123.442 E19.23145
G1 X133.516 Y124.415 E19.27062
G1 X132.938 Y125.624 E19.32076
G1 X132.372 Y126.619 E19.3636
G1 X131.782 Y127.519 E19.40386
G1 X131.04 Y128.503 E19.44998
G1 X130.356 Y129.296 E19.48916
G1 X129.473 Y130.191 E19.53621
G1 X128.69 Y130.886 E19.57538
G1 X127.784 Y131.594 E19.6184
G1 X126.897 Y132.201 E19.65862
G1 X125.744 Y132.877 E19.70863
G1 X124.713 Y133.387 E19.75167
G1 X123.747 Y133.792 E19.79086
G1 X122.632 Y134.176 E19.83499
G1 X121.55 Y134.471 E19.87695
G1 X120.418 Y134.702 E19.92018
G1 X119.172 Y134.868 E19.96722
G1 X118.127 Y134.937 E20.0064
G1 X116.875 Y134.937 E20.05325
G1 X115.829 Y134.869 E20.09247
G1 X114.685 Y134.72 E20.13564
G1 X113.451 Y134.473 E20.18273
G1 X112.44 Y134.199 E20.22192
G1 X111.25 Y133.792 E20.26898
G1 X110.285 Y133.387 E20.30814
G1 X109.162 Y132.828 E20.35508
G1 X108.17 Y132.245 E20.39813
G1 X107.3 Y131.657 E20.43743
G1 X106.309 Y130.887 E20.48438
G1 X105.526 Y130.192 E20.52356
G1 X104.643 Y129.297 E20.5706
G1 X103.959 Y128.504 E20.60979
G1 X103.203 Y127.501 E20.65678
G1 X102.629 Y126.624 E20.696
G1 X102.012 Y125.532 E20.74293
G1 X101.558 Y124.587 E20.78216
G1 X101.09 Y123.423 E20.82911
G1 X100.764 Y122.427 E20.86832
G1 X100.453 Y121.209 E20.91536
G1 X100.262 Y120.177 E20.95463
G1 X100.114 Y118.932 E21.00154
G1 X100.058 Y117.782 E21.04462
G1 X100.073 Y116.735 E21.0838
G1 X100.173 Y115.482 E21.13083
G1 X100.345 Y114.345 E21.17386
G1 X100.565 Y113.32 E21.21309
G1 X100.91 Y112.115 E21.25999
G1 X101.304 Y111.025 E21.30336
G1 X101.802 Y109.898 E21.34946
G1 X102.287 Y108.97 E21.38864
G1 X102.894 Y107.967 E21.43251
G1 X103.557 Y107.023 E21.47567
G1 X104.261 Y106.147 E21.51772
G1 X105.041 Y105.296 E21.56092
G0 F6000 X105.372 Y105.601
G1 F1200 X106.187 Y104.825 E21.60302
G1 X107.105 Y104.06 E21.64774
G1 X108.013 Y103.405 E21.68963
G1 X108.895 Y102.85 E21.72862
